build/images/box.svg

<?xml version="1.0" encoding="UTF-8"?>
<svg width="30px" height="32px" viewBox="0 0 30 32" version="1.1" xmlns="http://www.w3.org/2000/svg" xmlns:xlink="http://www.w3.org/1999/xlink">
    <!-- Generator: sketchtool 63.1 (101010) - https://sketch.com -->
    <title>EE5502CB-4848-452F-AF50-47A19E4DD119</title>
    <desc>Created with sketchtool.</desc>
    <g id="Page-1" stroke="none" stroke-width="1" fill="none" fill-rule="evenodd">
        <g id="Kupa-shop---product" transform="translate(-1025.000000, -626.000000)" fill="#93CFBE" fill-rule="nonzero">
            <g id="box" transform="translate(1025.000000, 626.000000)">
                <path d="M29.456904,7.04692398 L15.0626006,0.0464717349 C14.9349845,-0.0155321637 14.7863777,-0.0155321637 14.6588235,0.0464717349 L0.264458204,7.04692398 C0.103962848,7.12495906 0.00198142415,7.28870175 0.00198142415,7.46822612 L0.00198142415,24.4693333 C0.00198142415,24.6488577 0.103962848,24.8126004 0.264458204,24.8906355 L14.6587616,31.8910877 C14.7225387,31.9220897 14.7916409,31.9376218 14.8606811,31.9376218 C14.9297214,31.9376218 14.9987616,31.9220897 15.0626006,31.8910877 L29.456904,24.8906355 C29.6173994,24.8126004 29.7193808,24.6488577 29.7193808,24.4693333 L29.7193808,7.4682885 C29.7193808,7.28863938 29.6173375,7.12502144 29.456904,7.04692398 Z M14.8606811,0.987321637 L28.1868111,7.46822612 L24.323839,9.34693177 C24.2993808,9.32815595 24.2735604,9.31081481 24.2452012,9.29702924 L11.0095975,2.86022612 L14.8606811,0.987321637 Z M9.96080495,3.38919298 L23.2675542,9.86067836 L20.5421672,11.186152 L7.24092879,4.71728655 L9.96080495,3.38919298 Z M23.5788854,10.7481949 L23.5788854,15.6477505 L21.0331889,16.8858324 L21.0331889,11.9862768 L23.5788854,10.7481949 Z M28.7905882,24.1757817 L15.3250774,30.7243665 L15.3250774,14.7622924 L18.5370279,13.2002183 C18.7679876,13.0878752 18.8648297,12.8082339 18.7533127,12.575501 C18.6417957,12.3428928 18.3642105,12.2452086 18.1331889,12.357614 L14.8606811,13.949193 L13.5730031,13.3229162 C13.3419814,13.2104483 13.0643963,13.3081326 12.9528793,13.5408031 C12.8413622,13.7734737 12.9382043,14.0531774 13.1691641,14.1655205 L14.3962848,14.7622924 L14.3962848,30.7243665 L0.930773994,24.1756569 L0.930773994,8.21358285 L11.184644,13.2004055 C11.2497214,13.2320936 11.3185139,13.2470643 11.386192,13.2470643 C11.5588235,13.2470643 11.724644,13.1496296 11.8047059,12.9825185 C11.9162229,12.749848 11.8193808,12.4701442 11.5884211,12.3578012 L1.53455108,7.46822612 L6.14786378,5.22460819 L20.0979567,12.0090448 C20.1,12.0119142 20.102291,12.0144717 20.1043963,12.0172788 L20.1043963,17.6312515 C20.1043963,17.7922495 20.1865635,17.9418947 20.3219195,18.02754 C20.3970898,18.0750721 20.4828483,18.0990877 20.5688545,18.0990877 C20.637709,18.0990877 20.7067492,18.0836803 20.7707121,18.0525536 L24.2452012,16.3627914 C24.4056966,16.2847563 24.507678,16.121076 24.507678,15.9414893 L24.507678,10.296577 L28.7905882,8.21364522 L28.7905882,24.1757817 L28.7905882,24.1757817 Z" id="Shape"></path>
                <path d="M4.76321981,22.3612632 L2.65083591,21.3339571 C2.41975232,21.2214893 2.1422291,21.3191735 2.03071207,21.5518441 C1.91919505,21.7845146 2.01603715,22.0642183 2.2469969,22.1765614 L4.3593808,23.2038674 C4.4244582,23.2355556 4.49325077,23.2505263 4.56092879,23.2505263 C4.73356037,23.2505263 4.8993808,23.1530916 4.97944272,22.9859805 C5.09102167,22.7532476 4.99417957,22.4736686 4.76321981,22.3612632 Z" id="Path"></path>
                <path d="M6.7073065,21.0864405 L2.65374613,19.1150409 C2.42272446,19.0026979 2.14513932,19.1002573 2.03362229,19.3329903 C1.92216718,19.5656608 2.01900929,19.8453645 2.24996904,19.9577076 L6.30352941,21.9291072 C6.36860681,21.9607329 6.43739938,21.9757661 6.5050774,21.9757661 C6.67770898,21.9757661 6.84352941,21.8783314 6.92359133,21.7112203 C7.03510836,21.478425 6.93826625,21.1987212 6.7073065,21.0864405 Z" id="Path"></path>
            </g>
        </g>
    </g>
</svg>

<svg width="30" height="32" xmlns="http://www.w3.org/2000/svg"><g id="Page-1" stroke="none" stroke-width="1" fill="none" fill-rule="evenodd"><g id="Kupa-shop---product" transform="translate(-1025 -626)" fill="#93CFBE" fill-rule="nonzero"><g id="box" transform="translate(1025 626)"><path d="M29.457 7.047l-14.394-7a.461.461 0 00-.404 0l-14.395 7a.468.468 0 00-.262.421V24.47c0 .18.102.344.262.422l14.395 7a.462.462 0 00.404 0l14.394-7a.468.468 0 00.262-.422v-17a.468.468 0 00-.262-.422zM14.86.987l13.326 6.481-3.863 1.879a.46.46 0 00-.079-.05L11.01 2.86 14.86.987zM9.96 3.39l13.307 6.472-2.726 1.325-13.3-6.47L9.96 3.39zm13.618 7.36v4.899l-2.546 1.238v-4.9l2.546-1.238zm5.212 13.427l-13.466 6.548V14.762l3.212-1.562a.47.47 0 00.216-.624.463.463 0 00-.62-.218l-3.272 1.591-1.288-.626a.463.463 0 00-.62.218.47.47 0 00.216.625l1.227.596v15.962L.931 24.176V8.214L11.185 13.2a.46.46 0 00.62-.217.47.47 0 00-.217-.625L1.535 7.468l4.613-2.243 13.95 6.784.006.008v5.614a.469.469 0 00.465.468.461.461 0 00.202-.046l3.474-1.69a.468.468 0 00.263-.422v-5.644l4.283-2.083v15.962z" id="Shape"/><path d="M4.763 22.361l-2.112-1.027a.463.463 0 00-.62.218.47.47 0 00.216.625l2.112 1.027a.46.46 0 00.62-.218.47.47 0 00-.216-.625zm1.944-1.275l-4.053-1.971a.463.463 0 00-.62.218.47.47 0 00.216.625l4.054 1.971a.46.46 0 00.62-.218.47.47 0 00-.217-.625z" id="Path"/></g></g></g></svg>
